public/svg/sign-out.svg

<svg height="31" viewBox="0 0 29 31" width="29" xmlns="http://www.w3.org/2000/svg" xmlns:xlink="http://www.w3.org/1999/xlink"><linearGradient id="a" x1="50%" x2="50%" y1="0%" y2="100%"><stop offset="0" stop-color="#4db7eb"/><stop offset="1" stop-color="#5c6edd"/></linearGradient><g fill="url(#a)" transform="translate(0 .5)"><path d="m25.8421702.5h-13.684217c-1.7440566 0-3.1579532 1.39111301-3.1579532 3.10714069v6.21428138c0 .57202943.47133998 1.03573383 1.0527127 1.03573383.5813728 0 1.0526511-.4637044 1.0526511-1.03573383v-6.21428138c0-.57202946.4712783-1.03573379 1.052651-1.03573379h13.6842171c.5813727 0 1.052651.46370433 1.052651 1.03573379v22.78571861c0 .5720295-.4712783 1.0357338-1.052651 1.0357338h-13.6842787c-.5813728 0-1.0526511-.4637043-1.0526511-1.0357338v-6.2142814c0-.5720294-.4712783-1.0357338-1.052651-1.0357338-.5813728 0-1.0526511.4637044-1.0526511 1.0357338v6.2142814c0 1.7160277 1.4138349 3.1071407 3.1578915 3.1071407h13.684217c1.7440566 0 3.1578915-1.391113 3.1578915-3.1071407v-22.78571861c0-1.71602768-1.4137732-3.10714069-3.1578298-3.10714069z"/><path d="m20.9522421 13.4872801h-17.37670995l3.45002588-3.2927564c.40196384-.39723297.39042303-1.03022777-.02578265-1.41386808-.4060154-.37420749-1.04966091-.37420749-1.45561491 0l-5.23842118 4.99956908c-.09729882.0929221-.17421707.2033622-.22627347.3249928-.10595443.2446088-.10595443.5193323 0 .7639411.05230195.1220407.12958852.2328324.22731706.3259888l5.23835978 4.9995691c.40196384.397233 1.06519189.4082477 1.48139757.0246074s.42774648-1.0166351.02578265-1.4138681c-.00841006-.0083196-.01700427-.0165221-.02578265-.0246073l-3.45100808-3.2937525h17.37677135c.5786364 0 1.0476965-.447678 1.0476965-.9999372 0-.5522593-.4691215-.9998787-1.0477579-.9998787z"/></g></svg>

<?xml version="1.0" encoding="UTF-8"?>
<svg width="29px" height="31px" viewBox="0 0 29 31" version="1.1" xmlns="http://www.w3.org/2000/svg" xmlns:xlink="http://www.w3.org/1999/xlink">
    <title>sign-out</title>
    <defs>
        <linearGradient x1="50%" y1="0%" x2="50%" y2="100%" id="linearGradient-1">
            <stop stop-color="#4DB7EB" offset="0%"></stop>
            <stop stop-color="#5C6EDD" offset="100%"></stop>
        </linearGradient>
        <linearGradient x1="50%" y1="0%" x2="50%" y2="100%" id="linearGradient-2">
            <stop stop-color="#4DB7EB" offset="0%"></stop>
            <stop stop-color="#5C6EDD" offset="100%"></stop>
        </linearGradient>
    </defs>
    <g id="Page-1" stroke="none" stroke-width="1" fill="none" fill-rule="evenodd">
        <g id="Dashboard-user-desktop" transform="translate(-511.000000, -579.000000)" fill-rule="nonzero">
            <g id="sign-out" transform="translate(511.000000, 579.500000)">
                <path d="M25.8421702,0.5 L12.1579532,0.5 C10.4138966,0.5 9,1.89111301 9,3.60714069 L9,9.82142207 C9,10.3934515 9.47133998,10.8571559 10.0527127,10.8571559 C10.6340855,10.8571559 11.1053638,10.3934515 11.1053638,9.82142207 L11.1053638,3.60714069 C11.1053638,3.03511123 11.5766421,2.5714069 12.1580148,2.5714069 L25.8422319,2.5714069 C26.4236046,2.5714069 26.8948829,3.03511123 26.8948829,3.60714069 L26.8948829,26.3928593 C26.8948829,26.9648888 26.4236046,27.4285931 25.8422319,27.4285931 L12.1579532,27.4285931 C11.5765804,27.4285931 11.1053021,26.9648888 11.1053021,26.3928593 L11.1053021,20.1785779 C11.1053021,19.6065485 10.6340238,19.1428441 10.0526511,19.1428441 C9.4712783,19.1428441 9,19.6065485 9,20.1785779 L9,26.3928593 C9,28.108887 10.4138349,29.5 12.1578915,29.5 L25.8421085,29.5 C27.5861651,29.5 29,28.108887 29,26.3928593 L29,3.60714069 C29,1.89111301 27.5862268,0.5 25.8421702,0.5 Z" id="Path" fill="url(#linearGradient-1)"></path>
                <path d="M20.9522421,13.4872801 L3.57553215,13.4872801 L7.02555803,10.1945237 C7.42752187,9.79729073 7.41598106,9.16429593 6.99977538,8.78065562 C6.59375998,8.40644813 5.95011447,8.40644813 5.54416047,8.78065562 L0.305739291,13.7802247 C0.20844047,13.8731468 0.131522223,13.9835869 0.0794658192,14.1052175 C-0.0264886064,14.3498263 -0.0264886064,14.6245498 0.0794658192,14.8691586 C0.131767772,14.9911993 0.209054343,15.101991 0.306782875,15.1951474 L5.54514266,20.1947165 C5.9471065,20.5919495 6.61033455,20.6029642 7.02654023,20.2193239 C7.44274591,19.8356836 7.45428671,19.2026888 7.05232288,18.8054558 C7.04391282,18.7971362 7.03531861,18.7889337 7.02654023,18.7808485 L3.57553215,15.487096 L20.9523035,15.487096 C21.5309399,15.487096 22,15.039418 22,14.4871588 C22,13.9348995 21.5308785,13.4872801 20.9522421,13.4872801 Z" id="Path" fill="url(#linearGradient-2)"></path>
            </g>
        </g>
    </g>
</svg>
